wp-content/plugins/wp-carousel-free/admin/img/import-export.svg

<svg width="42" height="42" viewBox="0 0 42 42" fill="none" xmlns="http://www.w3.org/2000/svg">
<path d="M37.1875 38.5C37.912 38.5 38.5 37.912 38.5 37.1875V4.8125C38.5 4.088 37.912 3.5 37.1875 3.5H4.8125C4.088 3.5 3.5 4.088 3.5 4.8125V37.1875C3.5 37.912 4.088 38.5 4.8125 38.5H37.1875ZM37.1875 42H4.8125C2.15775 42 0 39.8422 0 37.1875V4.8125C0 2.15775 2.15775 0 4.8125 0H37.1875C39.8423 0 42 2.15775 42 4.8125V37.1875C42 39.8422 39.8423 42 37.1875 42Z" fill="#18afb9"/>
<path d="M32.7477 13.8425L26.6228 9.02998C25.7705 8.35448 24.5 8.96523 24.5 10.0625V13.125H10.5C9.53225 13.125 8.75 13.909 8.75 14.875C8.75 15.841 9.53225 16.625 10.5 16.625H24.5V19.6875C24.5 20.7865 25.774 21.3955 26.6228 20.72L32.7477 15.9075C33.0662 15.659 33.25 15.2775 33.25 14.875C33.25 14.4725 33.0662 14.091 32.7477 13.8425Z" fill="#18afb9"/>
<path d="M31.5 25.375H17.5V22.3125C17.5 21.2153 16.2295 20.6045 15.3772 21.28L9.25225 26.0925C8.93375 26.341 8.75 26.7225 8.75 27.125C8.75 27.5275 8.93375 27.909 9.25225 28.1575L15.3772 32.97C16.226 33.6455 17.5 33.0365 17.5 31.9375V28.875H31.5C32.4678 28.875 33.25 28.091 33.25 27.125C33.25 26.159 32.4678 25.375 31.5 25.375Z" fill="#18afb9"/>
</svg>

<svg xmlns="http://www.w3.org/2000/svg" width="42" height="42" fill="#18afb9" xmlns:v="https://vecta.io/nano"><path d="M37.188 38.5c.724 0 1.313-.588 1.313-1.312V4.813c0-.724-.588-1.312-1.312-1.312H4.813c-.724 0-1.312.588-1.312 1.313v32.375c0 .724.588 1.313 1.313 1.313h32.375zm0 3.5H4.813A4.82 4.82 0 0 1 0 37.188V4.813A4.82 4.82 0 0 1 4.813 0h32.375A4.82 4.82 0 0 1 42 4.813v32.375A4.82 4.82 0 0 1 37.188 42zm-4.44-28.157L26.623 9.03c-.852-.675-2.123-.065-2.123 1.033v3.063h-14a1.75 1.75 0 1 0 0 3.5h14v3.063c0 1.099 1.274 1.708 2.123 1.032l6.125-4.812a1.31 1.31 0 0 0 0-2.065zM31.5 25.375h-14v-3.062c0-1.097-1.27-1.708-2.123-1.032l-6.125 4.813a1.31 1.31 0 0 0 0 2.065l6.125 4.813c.849.675 2.123.066 2.123-1.032v-3.062h14a1.75 1.75 0 1 0 0-3.5z"/></svg>
